X:0790
T:Mr. Will's Favourite.
M:2/4
L:1/8
Q:1/4=124
I: :: :|
Z:Jack Campin * www.campin.me.uk * 2009
K:D
d/e/|fdAF|GBAd/e/|fdAF|GEEd/e/|fdAF|GBAd|BgTf>e|fdd:|
c/d/|eAfA|gAfA   |eAfA|feed/e/|fdAF|GBAd|BgTf>e|fdd:|
<end>
<start>
